!!!COM: Vivaldi, Antonio Lucio
!!!CDT: 1678/03/04-1741/08/28
!!!OPR: 12 sonatas for two violins and basso continuo
!!!OTL: Sonata in D major, op. @{OPS}, no. @{ONM} (@{SCT})
!!!OPS: 1
!!!ONM: 6
!!!OMV: 3. [Adagio]
!!!SCT: RV 62
!!!SCA: Antonio Vivaldi: Thematisch-systematisches Verzeichnis seiner Werke (Ryom-Verzeichnis)
!!!OMD: Adagio
!!!key: f#
**kern	**fb	**kern	**kern
*part3	*	*part2	*part1
*staff3	*	*staff2	*staff1
*ICstr&ICklav	*	*ICstr	*ICstr
*Icello&Icemba	*	*Ivioln	*Ivioln
*	*	*I#2	*I#1
*I"Violoncello\nContinuo	*	*I"Violin 2	*I"Violin 1
*I'bc	*	*I'v2	*I'v1
*clefF4	*	*clefG2	*clefG2
*k[f#c#]	*	*k[f#c#]	*k[f#c#]
*f#:	*	*f#:	*f#:
*M4/4	*	*M4/4	*M4/4
*met(c)	*	*met(c)	*met(c)
*MM36	*	*MM36	*MM36
=1	=1	=1	=1
4F#y\	.	2r	4r
4E#y\	6 (#)	.	8r
.	.	.	8ccc#y\
4F#y\	.	4r	8aa\L
.	.	.	16gg#X\L
.	.	.	16ff#y\JJ
4BB/	.	8r	[4ddd\
.	.	8bb\	.
=2	=2	=2	=2
4E\	7 #	8gg#X\L	4ddd\]
.	.	16ff#y\L	.
.	.	16ee\JJ	.
8F#y\L	5	16aa\LL	[4ccc#y\
.	.	16gg#X\	.
8C#y\J	6	16ff#y\	.
.	.	16ee\JJ	.
4D\	7	4.ff#y\	8ccc#y\L]
.	.	.	16bb\L
.	.	.	16aa#X\JJ
4GG#X/	7	.	[4bb\
.	.	16gg#X\LL	.
.	.	16ff#y\JJ	.
=3	=3	=3	=3
4C#y/	7 #	4ee#X\	8bb\L]
.	.	.	16aa\L
.	.	.	16gg#X\JJ
4FF#y/	.	16ff#y\LL	[4aa\
.	.	16een\	.
.	.	16dd#X\	.
.	.	16cc#y\JJ	.
4BB/	7 #	4.dd#X\	8aa\L]
.	.	.	16gg#X\L
.	.	.	16ff#y\JJ
4BB#X/	6#/ 5	.	8gg#X\L
.	.	8dd#y\	8ff#y\J
!!LO:LB:g=original
=4	=4	=4	=4
2C#y/	5#|	4.g#X/	8ee\L
.	.	.	8cc#y\J
.	6	.	2aa\
.	.	8cc#y\	.
4D#X\	6#/ 5	4b#X\	.
4E#X\	5nr	4bn\	[4gg#X\
=5	=5	=5	=5
4.F#y\	9 #	4a#X/	4gg#y\]
.	8 n	4an/	[4ff#y\
8BB#X/	7nr 5	.	.
4C#y/	5#| 4	8g#X/	8ff#y\L]
.	X 3	4cc#y\	8ee\J
4G#X\	5#| 4	.	4dd#X\
.	X #	8b#X\	.
=6	=6	=6	=6
4C#y/	.	8cc#y\L	4.cc#y\
.	.	16ee\L	.
.	.	16dd#X\JJ	.
2c#y\	5	4cc#y\	.
.	.	.	8ee\
.	4 2#|	2dd#X\	4.ff#y\
[4Bn\	#	.	.
.	.	.	16gg#X\LL
.	.	.	16ff#y\JJ
=7	=7	=7	=7
4B\]	.	[2cc#y\	4ee#X\
4A#X\	5nr 3	.	4een\
4.B\	9 #	4cc#y\]	4dd#X\
.	8 -	[4b\	4ddn\
8G#X\	5nr	.	.
=8	=8	=8	=8
4.A\	9 #	4b\]	4cc#X\
.	8 n	2a/	4ccn\
8D#X\	7nr 5nr	.	.
2E\	5 4	.	4b\
.	X #	4g#X/	[4ee\
=9	=9	=9	=9
4AA/	.	4.cc#y\	4ee\]
4GG#X/	6#/	.	4ee#X\
.	.	8b\	.
4FF#y/	.	4a/	4ff#y\
8r	.	4r	[4ddd\
8F#y\	6	.	.
!!LO:LB:g=original
=10	=10	=10	=10
4E\	7 #	4.gg#X\	8ddd\L]
.	.	.	16ccc#y\L
.	.	.	16bb#X\JJ
4AA/	7	.	[4ccc#y\
.	.	16aa\LL	.
.	.	16gg#X\JJ	.
4D\	7	4.ff#y\	8ccc#y\L]
.	.	.	16bbn\L
.	.	.	16aa#X\JJ
4GG#X/	7	.	4bb\
.	.	16ee#X\LL	.
.	.	16dd#X\JJ	.
=11	=11	=11	=11
4C#y/	7 #	4ee#X\	4bb\
8r	.	8r	8r
8C#y/	.	8ee#y\	8bb\
4FF#y/	5 4	4cc#y\	8bb\L
.	X #	.	8aa#X\J
4F#y\	6#/ -	4dd#X\	4aan\
=12	=12	=12	=12
4E\	5 4	4b\	8aa\L
.	X #	.	8gg#X\J
4AA#X/	7nr	4cc#y\	4ggn\
4BB/	6 n	2ddn\	8gg\L
.	5	.	8ff#y\J
[4B\	.	.	4bb\
=13	=13	=13	=13
4B\]	4#| 2	4.cc#y\	4ee#X\
8A\L	6	.	2ff#y\
8B\J	.	16b/LL	.
.	.	16a/JJ	.
4c#y\	5#| 4	2g#X/	.
4C#y/	#	.	4ee#X\t
=14	=14	=14	=14
1FF#y/;	.	1f#y/;	1ff#y\;
=:|!	=:|!	=:|!	=:|!
*-	*-	*-	*-
!!!SMS: RV 62 / Estienne Roger (No. 363), Amsterdam [facs.]
!!!ENC: Fran Bennion   rev. 05/12/21 E Correia
!!!END: 2004/10/09
!!!ONB: Converted from MuseData with musedata2hum on Sat May 11 12:01:55 2024
!!!YEM: (C) 2004, 2019 Center for Computer Assisted Research in the Humanities
!!!system-decoration: [(s1,s2,s3)]
!!!URL-info: https://wiki.ccarh.org/wiki/MuseData:_Antonio_Vivaldi#Op._1:_Suonate_da_camera_a_tr.C3.A8.2C_due_violini_e_violone_o_cembalo Information about Vivaldi Op. 1 on the CCARH wiki
!!!URL-pdf: https://pdf.musedata.org/vivaldi-op01-no06.pdf#page=3 MuseData edition
!!!URL-pdf: https://s9.imslp.org/files/imglnks/usimg/1/18/IMSLP280399-PMLP10351-Vivaldi_Sonatas_Op_1_-_Violino_Primo.pdf#page=10 Violino primo part, Amsterdam: Estienne Roger, n.d.(ca.1723). Plate 363.
!!!URL-pdf: https://s9.imslp.org/files/imglnks/usimg/d/d5/IMSLP280400-PMLP10351-Vivaldi_Sonatas_Op_1_-_Violino_Secondo.pdf#page=9 Violino secondo part, Amsterdam: Estienne Roger, n.d.(ca.1723). Plate 363.
!!!URL-pdf: https://s9.imslp.org/files/imglnks/usimg/8/89/IMSLP280401-PMLP10351-Vivaldi_Sonatas_Op_1_-_Organo_e_Violoncello.pdf#page=8 Organo e Violoncello parts, Amsterdam: Estienne Roger, n.d.(ca.1723). Plate 363.
!!!URL-youtube: https://www.youtube.com/watch?v=P5HHPe_W6Uo&t=1847s L'Arte dell'Arco
!!!title: @{OTL}, mov. @{OMV}
!!!filter-vcross: vcross
!!!EEV: 2024/05/11
!!!source-file: https://bitbucket.org/musedata/vivaldi/src/master/roger/op1/no06/stage2/03/01
!!!source-file: https://bitbucket.org/musedata/vivaldi/src/master/roger/op1/no06/stage2/03/02
!!!source-file: https://bitbucket.org/musedata/vivaldi/src/master/roger/op1/no06/stage2/03/03
!!!source-file: https://bitbucket.org/musedata/vivaldi/src/master/roger/op1/no06/stage2/03/04
